packages/bezier-icons/icons/app-check.svg

<svg width="24" height="24" viewBox="0 0 24 24" fill="none" xmlns="http://www.w3.org/2000/svg">
<path fill-rule="evenodd" clip-rule="evenodd" d="M12 3H10.3572H10.3572C9.27343 2.99999 8.39928 2.99998 7.69141 3.05782C6.96256 3.11737 6.32237 3.24318 5.73008 3.54497C4.78927 4.02434 4.02437 4.78924 3.545 5.73005C3.24321 6.32234 3.1174 6.96253 3.05785 7.69138C3.00001 8.39926 3.00002 9.27341 3.00003 10.3572V13.6428C3.00002 14.7266 3.00001 15.6007 3.05785 16.3086C3.1174 17.0375 3.24321 17.6777 3.545 18.27C4.02437 19.2108 4.78927 19.9757 5.73008 20.455C6.32237 20.7568 6.96256 20.8826 7.69141 20.9422C8.39926 21 9.27337 21 10.3571 21H10.3572H13.6429H13.643C14.7267 21 15.6008 21 16.3087 20.9422C17.0375 20.8826 17.6777 20.7568 18.27 20.455C19.2108 19.9757 19.9757 19.2108 20.4551 18.27C20.7569 17.6777 20.8827 17.0375 20.9422 16.3086C21 15.6008 21 14.7267 21 13.6429V13.6428V13H19V13.6C19 14.7366 18.9993 15.5289 18.9489 16.1458C18.8994 16.7509 18.8072 17.0986 18.6731 17.362C18.3854 17.9265 17.9265 18.3854 17.362 18.673C17.0986 18.8072 16.751 18.8994 16.1458 18.9488C15.529 18.9992 14.7366 19 13.6 19H10.4C9.26343 19 8.47111 18.9992 7.85427 18.9488C7.2491 18.8994 6.90142 18.8072 6.63806 18.673C6.07357 18.3854 5.61463 17.9265 5.32701 17.362C5.19283 17.0986 5.10065 16.7509 5.05121 16.1458C5.00081 15.5289 5.00003 14.7366 5.00003 13.6V10.4C5.00003 9.2634 5.00081 8.47108 5.05121 7.85424C5.10065 7.24907 5.19283 6.90138 5.32701 6.63803C5.61463 6.07354 6.07357 5.6146 6.63806 5.32698C6.90142 5.1928 7.2491 5.10062 7.85427 5.05118C8.47111 5.00078 9.26343 5 10.4 5H12V3ZM19.4686 5.29289L14.7545 10.0069L12.7071 7.95956C12.3166 7.56904 11.6834 7.56904 11.2929 7.95956C10.9024 8.35008 10.9024 8.98325 11.2929 9.37377L14.4457 12.5266C14.6163 12.6971 14.8928 12.6971 15.0633 12.5266L20.8828 6.70711C21.2733 6.31658 21.2733 5.68342 20.8828 5.29289C20.4923 4.90237 19.8591 4.90237 19.4686 5.29289Z" fill="#313234"/>
</svg>

<svg xmlns="http://www.w3.org/2000/svg" width="24" height="24" fill="none" viewBox="0 0 24 24"><path fill="#313234" fill-rule="evenodd" d="M12 3h-1.643C9.273 3 8.4 3 7.691 3.058c-.728.06-1.369.185-1.96.487A5 5 0 0 0 3.544 5.73c-.302.592-.428 1.233-.487 1.961C3 8.4 3 9.273 3 10.357v3.286c0 1.084 0 1.958.058 2.666.06.729.185 1.369.487 1.961a5 5 0 0 0 2.185 2.185c.592.302 1.233.428 1.961.487C8.4 21 9.273 21 10.357 21h3.286c1.084 0 1.958 0 2.666-.058.729-.06 1.369-.185 1.961-.487a5 5 0 0 0 2.185-2.185c.302-.592.428-1.232.487-1.961C21 15.6 21 14.727 21 13.643V13h-2v.6c0 1.137 0 1.929-.051 2.546-.05.605-.142.953-.276 1.216a3 3 0 0 1-1.311 1.311c-.263.134-.611.226-1.216.276-.617.05-1.41.051-2.546.051h-3.2c-1.137 0-1.929 0-2.546-.051-.605-.05-.953-.142-1.216-.276a3 3 0 0 1-1.311-1.311c-.134-.263-.226-.611-.276-1.216C5.001 15.529 5 14.736 5 13.6v-3.2c0-1.137 0-1.929.051-2.546.05-.605.142-.953.276-1.216a3 3 0 0 1 1.311-1.311c.263-.134.611-.226 1.216-.276C8.471 5.001 9.264 5 10.4 5H12zm7.469 2.293-4.715 4.714-2.047-2.047a1 1 0 1 0-1.414 1.414l3.153 3.153c.17.17.447.17.617 0l5.82-5.82a1 1 0 0 0-1.414-1.414" clip-rule="evenodd"/></svg>
